img/news/FORTUNE.svg

<svg viewBox="0 0 89.5 20.6" xmlns="http://www.w3.org/2000/svg"><path d="m11.5 4.7v11.2a4.75 4.75 0 0 0 9.5 0v-11.2a4.75 4.75 0 0 0 -9.5 0m3.4 11.2v-11.2a1.29 1.29 0 0 1 1.4-1.3 1.26 1.26 0 0 1 1.3 1.3v11.2a1.32 1.32 0 0 1 -1.3 1.3 1.35 1.35 0 0 1 -1.4-1.3m33.5-15.7h-9.6v3.4h3.1v16.7h3.4v-16.7h3.1zm10 0v15.7a1.3 1.3 0 1 1 -2.6 0v-15.7h-3.5v15.7a4.8 4.8 0 0 0 9.6 0v-15.7zm31.1 3.4v-3.4h-8.4v20.1h8.4v-3.4h-5v-5.2h3.2v-3.4h-3.2v-4.7zm-53.9 16.7h-3.6l-2.5-9.5a2.73 2.73 0 0 0 2.2-2.7v-3.1a1.37 1.37 0 0 0 -1.4-1.4h-1.3v16.7h-3.4v-20.1h4.7a4.76 4.76 0 0 1 4.8 4.6v3.2a5.37 5.37 0 0 1 -1.9 4.4zm37.9-20.1v11l-3.5-11h-3.5v20.1h3.5v-9.8l3.2 9.8h3.8v-20.1zm-73.5.3v20.1h3.6v-8.6h3.3v-3.4h-3.3v-4.7h5.2v-3.4z"/></svg>

<?xml version="1.0" encoding="UTF-8" standalone="no"?>
<svg
	xmlns:dc="http://purl.org/dc/elements/1.1/"
	xmlns:cc="http://creativecommons.org/ns#"
	xmlns:rdf="http://www.w3.org/1999/02/22-rdf-syntax-ns#"
	xmlns:svg="http://www.w3.org/2000/svg"
	xmlns="http://www.w3.org/2000/svg"
	xmlns:sodipodi="http://sodipodi.sourceforge.net/DTD/sodipodi-0.dtd"
	xmlns:inkscape="http://www.inkscape.org/namespaces/inkscape"
	viewBox="0 0 89.5 20.6"
	version="1.1"
	id="svg22"
	sodipodi:docname="Fortune logo.svg"
	inkscape:version="1.0.2 (e86c870879, 2021-01-15, custom)">
  <title
	  id="title30">Logo of Fortune magazine</title>
  <metadata
	  id="metadata28">
	 <rdf:RDF>
		<cc:Work
			rdf:about="">
		  <dc:format>image/svg+xml</dc:format>
		  <dc:type
			  rdf:resource="http://purl.org/dc/dcmitype/StillImage" />
		  <dc:title>Logo of Fortune magazine</dc:title>
		</cc:Work>
	 </rdf:RDF>
  </metadata>
  <defs
	  id="defs26" />
  <sodipodi:namedview
	  pagecolor="#ffffff"
	  bordercolor="#666666"
	  borderopacity="1"
	  objecttolerance="10"
	  gridtolerance="10"
	  guidetolerance="10"
	  inkscape:pageopacity="0"
	  inkscape:pageshadow="2"
	  inkscape:window-width="1366"
	  inkscape:window-height="705"
	  id="namedview24"
	  showgrid="false"
	  inkscape:zoom="13.039106"
	  inkscape:cx="44.75"
	  inkscape:cy="10.3"
	  inkscape:window-x="-8"
	  inkscape:window-y="-8"
	  inkscape:window-maximized="1"
	  inkscape:current-layer="svg22" />
  <path
	  d="M11.5 4.7v11.2a4.75 4.75 0 0 0 9.5 0V4.7a4.75 4.75 0 0 0-9.5 0m3.4 11.2V4.7a1.29 1.29 0 0 1 1.4-1.3 1.26 1.26 0 0 1 1.3 1.3v11.2a1.32 1.32 0 0 1-1.3 1.3 1.35 1.35 0 0 1-1.4-1.3M48.4.2h-9.6v3.4h3.1v16.7h3.4V3.6h3.1V.2zM58.4.2v15.7a1.3 1.3 0 1 1-2.6 0V.2h-3.5v15.7a4.8 4.8 0 0 0 9.6 0V.2zM89.5 3.6V.2h-8.4v20.1h8.4v-3.4h-5v-5.2h3.2V8.3h-3.2V3.6h5zM35.6 20.3H32l-2.5-9.5a2.73 2.73 0 0 0 2.2-2.7V5a1.37 1.37 0 0 0-1.4-1.4H29v16.7h-3.4V.2h4.7a4.76 4.76 0 0 1 4.8 4.6V8a5.37 5.37 0 0 1-1.9 4.4zM73.5.2v11L70 .2h-3.5v20.1H70v-9.8l3.2 9.8H77V.2h-3.5zM0 .5v20.1h3.6V12h3.3V8.6H3.6V3.9h5.2V.5H0z"
	  id="path20" />
</svg>
